components/icon/svg/24/ticket_ticket.svg

<?xml version="1.0" encoding="UTF-8"?>
<svg width="24px" height="24px" viewBox="0 0 24 24" version="1.1" xmlns="http://www.w3.org/2000/svg" xmlns:xlink="http://www.w3.org/1999/xlink">
    <!-- Generator: Sketch 64 (93537) - https://sketch.com -->
    <title>ic-db_ticket_ticket_24</title>
    <desc>Created with Sketch.</desc>
    <g id="Symbols:Icon" stroke="none" stroke-width="1" fill="none" fill-rule="evenodd">
        <g id="24dp-Icon/Ticket/Ticket" fill="#282D37">
            <path d="M15.9933,2 C17.6611,2 19,3.3614878 19,5.00468686 L19,18.9953131 C19,20.6385122 17.6611,22 15.9933,22 L8.0067,22 C6.3389,22 5,20.6385122 5,18.9953131 L5,5.00468686 C5,3.3614878 6.3389,2 8.0067,2 L15.9933,2 Z M15.9933,4.01874744 L7.9832,4.01874744 C7.443,4.01874744 6.9966,4.46474862 6.9966,5.02817113 L6.9966,19.0187974 C6.9966,19.5587356 7.443,20.0047368 7.9832,20.0047368 L15.9933,20.0047368 C16.557,20.0047368 17.0034,19.5587356 17.0034,19.0187974 L17.0034,5.02817113 C17.0034,4.46474862 16.557,4.01874744 15.9933,4.01874744 Z M8.0067,17.00005 C8.0067,17.5398883 8.453,17.9858895 9.0168,17.9858895 C9.557,17.9858895 10.0034,17.5398883 10.0034,17.00005 C10.0034,16.4366275 9.557,15.9906263 9.0168,15.9906263 C8.453,15.9906263 8.0067,16.4366275 8.0067,17.00005 Z M10.9899,17.00005 C10.9899,17.5398883 11.4362,17.9858895 12,17.9858895 C12.5403,17.9858895 12.9866,17.5398883 12.9866,17.00005 C12.9866,16.4366275 12.5403,15.9906263 12,15.9906263 C11.4362,15.9906263 10.9899,16.4366275 10.9899,17.00005 Z M13.9966,17.00005 C13.9966,17.5398883 14.443,17.9858895 14.9832,17.9858895 C15.547,17.9858895 15.9933,17.5398883 15.9933,17.00005 C15.9933,16.4366275 15.547,15.9906263 14.9832,15.9906263 C14.443,15.9906263 13.9966,16.4366275 13.9966,17.00005 Z" id="🎨-Color"></path>
        </g>
    </g>
</svg>

<svg width="24" height="24" xmlns="http://www.w3.org/2000/svg"><path d="M15.993 2A3.011 3.011 0 0119 5.005v13.99A3.011 3.011 0 0115.993 22H8.007A3.011 3.011 0 015 18.995V5.005A3.011 3.011 0 018.007 2h7.986zm0 2.019h-8.01a.997.997 0 00-.986 1.01v13.99c0 .54.446.986.986.986h8.01a.997.997 0 001.01-.986V5.029c0-.564-.446-1.01-1.01-1.01zM8.007 17c0 .54.446.986 1.01.986.54 0 .986-.446.986-.986a.997.997 0 10-1.996 0zm2.983 0c0 .54.446.986 1.01.986.54 0 .987-.446.987-.986a.997.997 0 10-1.997 0zm3.007 0c0 .54.446.986.986.986a.997.997 0 100-1.995.997.997 0 00-.986 1.01z" fill="#282D37" fill-rule="evenodd"/></svg>
